X: 5
M: C
L: 1/8
K: Bb
V: 1
|:\
d3c B2(AG) | ^FGAB A^F=ED |\
f3e d2(cB) | cdcB {B}A2(GF) |
d3c B2(AG) | ^FGAB A^F=ED |\
(3(GAB) (3(ABc) (3(Bcd) (3(cde) | d2D2 G4 :|
V: 2 clef=bass middle=d
|:\
g4 e4 | d4 d2c2 | B2d2 g2e2 | d4 G4 ::\
b4 d4 | e2c2 f2z2 | z4 b4 | f4 b2B2 |
b4 g4 | a4 d2z2 | G2A2 B2c2 | d4 G4 :|

